src/assets/img/stamp/check.svg

<svg width="305" height="48" viewBox="0 0 305 48" fill="none" xmlns="http://www.w3.org/2000/svg">
<rect width="305" height="48" rx="10" fill="#5C4795"/>
<path d="M144.505 25.7344H142.77V23.7891H144.505V25.7344ZM150.536 26.8359H148.794V17.2812H150.536V26.8359ZM152.442 22.8281H149.895V21.3984H152.442V22.8281ZM139.216 25.1406C140.299 25.1406 141.309 25.1328 142.247 25.1172C143.19 25.0964 144.171 25.0547 145.192 24.9922C146.213 24.9297 147.171 24.8438 148.067 24.7344L148.2 25.9375C146.877 26.1667 145.515 26.3177 144.114 26.3906C142.713 26.4583 141.143 26.4948 139.403 26.5L139.216 25.1406ZM150.536 31.375H148.794V28.7969H140.989V27.4375H150.536V31.375ZM147.684 19.6797H139.575V18.4062H147.684V19.6797ZM143.622 20.0703C144.309 20.0703 144.908 20.1562 145.419 20.3281C145.934 20.4948 146.333 20.737 146.614 21.0547C146.895 21.3672 147.036 21.737 147.036 22.1641C147.036 22.5911 146.895 22.9635 146.614 23.2812C146.333 23.599 145.934 23.8464 145.419 24.0234C144.908 24.1953 144.309 24.2812 143.622 24.2812C142.945 24.2812 142.348 24.1953 141.833 24.0234C141.322 23.8464 140.924 23.599 140.637 23.2812C140.356 22.9635 140.216 22.5911 140.216 22.1641C140.216 21.737 140.356 21.3672 140.637 21.0547C140.924 20.737 141.322 20.4948 141.833 20.3281C142.348 20.1562 142.945 20.0703 143.622 20.0703ZM143.622 21.25C143.257 21.2396 142.945 21.2708 142.684 21.3438C142.429 21.4115 142.231 21.5156 142.091 21.6562C141.95 21.7917 141.88 21.9609 141.88 22.1641C141.88 22.362 141.95 22.5312 142.091 22.6719C142.231 22.8125 142.432 22.9219 142.692 23C142.953 23.0729 143.262 23.1094 143.622 23.1094C143.992 23.1094 144.307 23.0729 144.567 23C144.828 22.9219 145.026 22.8125 145.161 22.6719C145.302 22.5312 145.372 22.362 145.372 22.1641C145.372 21.9609 145.302 21.7917 145.161 21.6562C145.026 21.5156 144.828 21.4115 144.567 21.3438C144.312 21.2708 143.997 21.2396 143.622 21.25ZM144.505 19.0156H142.77V17.1562H144.505V19.0156ZM164.527 27.4844H162.784V17.2812H164.527V27.4844ZM164.925 31.125H155.183V29.7031H164.925V31.125ZM156.933 30.2578H155.183V26.4531H156.933V30.2578ZM156.831 18.2031C157.545 18.2031 158.191 18.3542 158.769 18.6562C159.352 18.9583 159.808 19.3776 160.136 19.9141C160.469 20.4505 160.636 21.0547 160.636 21.7266C160.636 22.4141 160.469 23.0286 160.136 23.5703C159.808 24.1068 159.352 24.526 158.769 24.8281C158.191 25.1302 157.545 25.2812 156.831 25.2812C156.118 25.2812 155.472 25.1302 154.894 24.8281C154.321 24.526 153.865 24.1068 153.527 23.5703C153.193 23.0286 153.027 22.4141 153.027 21.7266C153.027 21.0547 153.193 20.4505 153.527 19.9141C153.865 19.3776 154.321 18.9583 154.894 18.6562C155.472 18.3542 156.118 18.2031 156.831 18.2031ZM156.831 19.7266C156.43 19.7214 156.068 19.8021 155.745 19.9688C155.428 20.1302 155.178 20.3646 154.995 20.6719C154.813 20.9792 154.722 21.3307 154.722 21.7266C154.722 22.1328 154.813 22.4922 154.995 22.8047C155.178 23.112 155.428 23.349 155.745 23.5156C156.068 23.6771 156.43 23.7578 156.831 23.7578C157.227 23.7578 157.584 23.6771 157.902 23.5156C158.219 23.349 158.467 23.112 158.644 22.8047C158.826 22.4922 158.917 22.1328 158.917 21.7266C158.917 21.3307 158.826 20.9792 158.644 20.6719C158.467 20.3646 158.219 20.1302 157.902 19.9688C157.584 19.8021 157.227 19.7214 156.831 19.7266Z" fill="white"/>
</svg>

<svg width="305" height="48" fill="none" xmlns="http://www.w3.org/2000/svg"><rect width="305" height="48" rx="10" fill="#5C4795"/><path d="M144.505 25.734h-1.735V23.79h1.735v1.945Zm6.031 1.102h-1.742V17.28h1.742v9.555Zm1.906-4.008h-2.547v-1.43h2.547v1.43Zm-13.226 2.313c1.083 0 2.093-.008 3.031-.024.943-.02 1.924-.062 2.945-.125a47.952 47.952 0 0 0 2.875-.258l.133 1.203a34.39 34.39 0 0 1-4.086.454 104.92 104.92 0 0 1-4.711.109l-.187-1.36Zm11.32 6.234h-1.742v-2.578h-7.805v-1.36h9.547v3.938Zm-2.852-11.695h-8.109v-1.274h8.109v1.274Zm-4.062.39c.687 0 1.286.086 1.797.258.515.167.914.409 1.195.727.281.312.422.682.422 1.11 0 .426-.141.799-.422 1.116-.281.318-.68.565-1.195.742-.511.172-1.11.258-1.797.258-.677 0-1.274-.086-1.789-.258-.511-.177-.909-.424-1.196-.742a1.632 1.632 0 0 1-.421-1.117c0-.427.14-.797.421-1.11.287-.317.685-.56 1.196-.726.515-.172 1.112-.258 1.789-.258Zm0 1.18c-.365-.01-.677.02-.938.094-.255.067-.453.172-.593.312a.675.675 0 0 0-.211.508c0 .198.07.367.211.508.14.14.341.25.601.328.261.073.57.11.93.11.37 0 .685-.037.945-.11.261-.078.459-.188.594-.328a.691.691 0 0 0 .211-.508.675.675 0 0 0-.211-.508c-.135-.14-.333-.244-.594-.312a3.163 3.163 0 0 0-.945-.094Zm.883-2.234h-1.735v-1.86h1.735v1.86Zm20.022 8.468h-1.743V17.281h1.743v10.203Zm.398 3.641h-9.742v-1.422h9.742v1.422Zm-7.992-.867h-1.75v-3.805h1.75v3.805Zm-.102-12.055c.714 0 1.36.151 1.938.453a3.397 3.397 0 0 1 1.867 3.07c0 .688-.167 1.303-.5 1.844a3.397 3.397 0 0 1-1.367 1.258c-.578.302-1.224.453-1.938.453a4.119 4.119 0 0 1-1.937-.453 3.53 3.53 0 0 1-1.367-1.258c-.334-.541-.5-1.156-.5-1.843 0-.672.166-1.276.5-1.813a3.531 3.531 0 0 1 1.367-1.258 4.12 4.12 0 0 1 1.937-.453Zm0 1.524a2.267 2.267 0 0 0-1.086.242 1.816 1.816 0 0 0-.75.703 2.03 2.03 0 0 0-.273 1.055c0 .406.091.765.273 1.078.183.307.433.544.75.71.323.162.685.243 1.086.243.396 0 .753-.08 1.071-.242a1.81 1.81 0 0 0 .742-.711c.182-.313.273-.672.273-1.078a2.03 2.03 0 0 0-.273-1.055 1.76 1.76 0 0 0-.742-.703 2.207 2.207 0 0 0-1.071-.242Z" fill="#fff"/></svg>
